src/assets/bold/lm-file-sign-bold.svg

<svg width="24" height="24" viewBox="0 0 24 24" fill="none" xmlns="http://www.w3.org/2000/svg" fill="currentColor">
<path d="M16.316 16.4405C16.2302 16.5876 16.083 16.7102 15.8992 16.7469L12.8713 17.3353C12.4913 17.4334 12.05 17.2986 11.8171 16.9921L11.4984 16.5753L10.9713 17.0779C10.8242 17.225 10.6158 17.3231 10.3829 17.3476H10.3461C9.79446 17.3476 9.4267 15.9134 9.36541 15.4353L9.32864 15.2146L8.10279 17.4824C7.96795 17.6295 7.78407 17.6908 7.58793 17.6908C7.42857 17.6908 7.28147 17.6541 7.13437 17.5437C6.99953 17.4457 6.92598 17.2863 6.91372 17.1147C6.90146 16.9553 6.96275 16.796 7.07308 16.6611L8.58087 13.7436C8.93636 13.3759 9.56155 13.3146 9.96607 13.6455C10.15 13.7926 10.2603 13.9888 10.2971 14.2217L10.5177 15.705L10.8119 15.4353C11.1674 15.0798 11.7926 15.0675 12.1849 15.3985C12.2339 15.4353 12.2829 15.4843 12.3197 15.5333L12.7487 16.1708L15.5437 15.6437C15.8869 15.5456 16.2424 15.6804 16.3405 15.9992C16.3895 16.1463 16.365 16.3056 16.2914 16.4527L16.316 16.4405Z" fill="black"/>
<path d="M7.75959 6.59692H10.2113C10.6403 6.59692 10.9713 6.94016 10.9713 7.35695C10.9713 7.77374 10.6281 8.11697 10.2113 8.11697H7.75959C7.33054 8.11697 6.99956 7.77374 6.99956 7.35695C6.99956 6.94016 7.3428 6.59692 7.75959 6.59692Z" fill="black"/>
<path d="M7.75959 10.1641H13.8888C14.3179 10.1641 14.6488 10.5074 14.6488 10.9242C14.6488 11.341 14.3056 11.6842 13.8888 11.6842H7.75959C7.33054 11.6842 6.99956 11.341 6.99956 10.9242C6.99956 10.5074 7.3428 10.1641 7.75959 10.1641Z" fill="black"/>
<path d="M19.8709 7.8718V19.1128C19.8709 19.8606 19.5767 20.5716 19.0496 21.0987C18.5225 21.6258 17.8115 21.92 17.0637 21.92H6.84015C6.09238 21.92 5.38139 21.6258 4.85428 21.0987C4.32716 20.5716 4.03296 19.8606 4.03296 19.1128V4.80719C4.03296 4.05942 4.32716 3.34843 4.85428 2.82132C5.38139 2.2942 6.09238 2 6.84015 2H13.9868C14.1952 2 14.3791 2.08581 14.5262 2.22065L19.638 7.33243C19.7728 7.47953 19.8586 7.66341 19.8586 7.8718H19.8709ZM5.94528 3.91232C5.70011 4.15749 5.56527 4.47621 5.56527 4.81945V19.1251C5.56527 19.4683 5.70011 19.787 5.94528 20.0322C6.19045 20.2774 6.50917 20.4122 6.85241 20.4122H17.0637C17.4069 20.4122 17.7257 20.2774 17.9708 20.0322C18.216 19.787 18.3508 19.4683 18.3508 19.1251V8.64409H15.0288C14.5507 8.64409 14.0972 8.46021 13.7662 8.11697C13.4352 7.78599 13.2391 7.33243 13.2391 6.85435V3.53231H6.84015C6.49691 3.53231 6.17819 3.66715 5.93302 3.91232H5.94528ZM14.7591 4.61105V6.84209C14.7591 6.91564 14.7836 6.97694 14.8327 7.02597C14.8817 7.075 14.943 7.09952 15.0165 7.09952H17.2476L14.7591 4.61105Z" fill="black"/>
</svg>

<svg xmlns="http://www.w3.org/2000/svg" width="24" height="24" fill="currentColor" viewBox="0 0 24 24">
  <path d="M16.316 16.44a.634.634 0 0 1-.417.307l-3.028.588c-.38.098-.821-.036-1.054-.343l-.319-.417-.527.503a.975.975 0 0 1-.588.27h-.037c-.552 0-.92-1.435-.98-1.913l-.037-.22-1.226 2.267a.675.675 0 0 1-.515.209.716.716 0 0 1-.454-.147.57.57 0 0 1-.22-.43.645.645 0 0 1 .16-.453l1.507-2.917c.355-.368.98-.43 1.385-.098a.896.896 0 0 1 .331.576l.22 1.483.295-.27c.355-.355.98-.367 1.373-.037a.705.705 0 0 1 .135.135l.429.638 2.795-.527c.343-.098.698.036.796.355a.592.592 0 0 1-.049.454l.025-.012ZM7.76 6.597h2.451c.43 0 .76.343.76.76s-.343.76-.76.76H7.76a.756.756 0 0 1-.76-.76c0-.417.343-.76.76-.76Zm0 3.567h6.129c.429 0 .76.343.76.76s-.343.76-.76.76h-6.13a.756.756 0 0 1-.76-.76c0-.417.344-.76.76-.76Z"/>
  <path d="M19.87 7.872v11.24a2.801 2.801 0 0 1-2.806 2.808H6.84a2.801 2.801 0 0 1-2.807-2.807V4.807A2.801 2.801 0 0 1 6.84 2h7.147a.8.8 0 0 1 .54.22l5.111 5.112c.135.148.22.331.22.54h.013ZM5.946 3.912a1.27 1.27 0 0 0-.38.907v14.306c0 .343.135.662.38.907s.564.38.907.38h10.212c.343 0 .662-.135.907-.38a1.27 1.27 0 0 0 .38-.907V8.645H15.03c-.478 0-.932-.185-1.263-.528a1.791 1.791 0 0 1-.527-1.263V3.532h-6.4a1.27 1.27 0 0 0-.907.38h.012Zm8.814.699v2.231a.25.25 0 0 0 .074.184.25.25 0 0 0 .184.074h2.23L14.76 4.61Z"/>
</svg>
